src/lib/packages/icons/src/assets/filled/activity-notification-square.svg

<svg width="24" height="24" viewBox="0 0 24 24" fill="none" xmlns="http://www.w3.org/2000/svg">
<path d="M20.629 7.44312C20.354 7.49512 20.07 7.51092 19.771 7.49292C18.044 7.38892 16.606 5.94697 16.507 4.21997C16.49 3.92397 16.507 3.64309 16.558 3.37109C16.594 3.18009 16.463 3 16.268 3H6.381C4.121 3 3.00101 4.12012 3.00101 6.37012V17.6201C3.00101 19.8701 4.121 21 6.381 21H17.621C19.881 21 21.001 19.8701 21.001 17.6201V7.73291C21 7.53791 20.82 7.40712 20.629 7.44312ZM17.53 10.53L14.737 13.323C14.056 14.005 12.945 14.006 12.263 13.324L10.674 11.739C10.576 11.641 10.418 11.641 10.32 11.739L7.52901 14.53C7.38301 14.676 7.19099 14.75 6.99899 14.75C6.80699 14.75 6.61499 14.677 6.46899 14.53C6.17599 14.237 6.17599 13.762 6.46899 13.469L9.25999 10.678C9.94199 9.99598 11.052 9.996 11.734 10.677L13.323 12.262C13.421 12.359 13.579 12.359 13.677 12.262L16.47 9.46899C16.763 9.17599 17.238 9.17599 17.531 9.46899C17.824 9.76199 17.823 10.237 17.53 10.53ZM22 4C22 5.104 21.105 6 20 6C18.895 6 18 5.104 18 4C18 2.896 18.895 2 20 2C21.105 2 22 2.896 22 4Z" fill="currentColor"/>
</svg>

<svg xmlns="http://www.w3.org/2000/svg" width="24" height="24" fill="none"><path fill="currentColor" d="M20.629 7.443a3.467 3.467 0 0 1-.858.05c-1.727-.104-3.165-1.546-3.264-3.273a3.49 3.49 0 0 1 .051-.849c.036-.19-.095-.371-.29-.371H6.381c-2.26 0-3.38 1.12-3.38 3.37v11.25c0 2.25 1.12 3.38 3.38 3.38h11.24c2.26 0 3.38-1.13 3.38-3.38V7.733c-.001-.195-.181-.326-.372-.29ZM17.53 10.53l-2.793 2.793a1.752 1.752 0 0 1-2.474.001l-1.589-1.585a.25.25 0 0 0-.354 0L7.529 14.53a.748.748 0 0 1-1.06 0 .75.75 0 0 1 0-1.061l2.791-2.791a1.752 1.752 0 0 1 2.474-.001l1.589 1.585a.252.252 0 0 0 .354 0l2.793-2.793a.75.75 0 1 1 1.06 1.061ZM22 4a2 2 0 1 1-4 0 2 2 0 0 1 4 0Z"/></svg>
